Papirus/64x64/apps/calf.svg

<svg xmlns="http://www.w3.org/2000/svg" width="64" height="64" version="1.1">
 <rect style="opacity:.2" width="52" height="52" x="6" y="5" ry="6"/>
 <rect style="fill:#e4e4e4" width="52" height="52" x="6" y="4" ry="6"/>
 <path style="fill:#4f4f4f" d="m12 4c-3.324 0-6 2.676-6 6v23s10-2 10-14c0-10 13-15 13-15h-17zm26.466797 0a10 10 0 0 0 2.851562 4.4257812 11 11 0 0 0-0.318359 2.5742188 11 11 0 0 0 11 11 11 11 0 0 0 6-1.792969v-10.207031c0-3.324-2.676-6-6-6h-13.533203zm19.533203 23s-11.480798 1.480798-18 8c-7 7-11 21-11 21h23c3.324 0 6-2.676 6-6v-23z"/>
 <path style="opacity:.2" d="m14 56.000175s6 4 18 4 18-4 18-4l-9-10-9 9-10-9z"/>
 <path style="fill:#4f4f4f" d="m14 55s6 4 18 4 18-4 18-4l-9-10-9 9-10-9z"/>
 <path style="opacity:.2" d="m23 43.000175c-5.214286 0-8.770338 3.519787-10.539062 6.414062-1.768725 2.894276-2.365235 5.71875-2.365235 5.71875a4.0004 4.0004 0 1 0 7.808594 1.734376s0.40349-1.675526 1.384765-3.28125c0.981276-1.605725 1.925224-2.585938 3.710938-2.585938 1.595238 0 2.591423 1.055605 3.621094 2.927734 1.029671 1.87213 1.457031 3.857422 1.457031 3.857422a4.0004 4.0004 0 0 0 7.84375 0s0.42736-1.985292 1.457031-3.857422c1.029671-1.872129 2.025856-2.927734 3.621094-2.927734 1.785714 0 2.729662 0.980213 3.710938 2.585938 0.981275 1.605724 1.384765 3.28125 1.384765 3.28125a4.0004 4.0004 0 1 0 7.808594-1.734376s-0.59651-2.824474-2.365235-5.71875c-1.768724-2.894275-5.324776-6.414062-10.539062-6.414062-4.051273 0-7.035129 2.217199-9 4.644531-1.964871-2.427332-4.948727-4.644531-9-4.644531z"/>
 <path style="fill:none;stroke-linecap:round;stroke-linejoin:round;stroke-width:8;stroke:#f26f6f" d="m14 55s2-9 9-9 9 10 9 10 2-10 9-10 9 9 9 9"/>
 <path style="opacity:.2" d="m23.712891 15.002316a10.160932 12.288428 22.518727 0 0-10.494141 7.861328 10.160932 12.288428 22.518727 0 0 4.371094 15.400391 10.160932 12.288428 22.518727 0 0 14.191406-7.126953 10.160932 12.288428 22.518727 0 0 0.21875-0.544922 12.288428 10.160932 67.481273 0 0 0.21875 0.544922 12.288428 10.160932 67.481273 0 0 14.191406 7.126953 12.288428 10.160932 67.481273 0 0 4.371094-15.400391 12.288428 10.160932 67.481273 0 0-14.191406-7.126953 12.288428 10.160932 67.481273 0 0-4.589844 4.777344 10.160932 12.288428 22.518727 0 0-4.589844-4.777344 10.160932 12.288428 22.518727 0 0-3.697265-0.734375z"/>
 <path style="fill:#ffffff" d="m23.712891 14.001953a10.160932 12.288428 22.518727 0 0-10.494141 7.861328 10.160932 12.288428 22.518727 0 0 4.371094 15.400391 10.160932 12.288428 22.518727 0 0 14.191406-7.126953 10.160932 12.288428 22.518727 0 0 0.21875-0.544922 12.288428 10.160932 67.481273 0 0 0.21875 0.544922 12.288428 10.160932 67.481273 0 0 14.191406 7.126953 12.288428 10.160932 67.481273 0 0 4.371094-15.400391 12.288428 10.160932 67.481273 0 0-14.191406-7.126953 12.288428 10.160932 67.481273 0 0-4.589844 4.777344 10.160932 12.288428 22.518727 0 0-4.589844-4.777344 10.160932 12.288428 22.518727 0 0-3.697265-0.734375z"/>
 <circle style="fill:#4f4f4f" cx="28.5" cy="25.5" r="3.5"/>
 <circle style="fill:#4f4f4f" cx="37" cy="25" r="5"/>
 <path style="fill:#ffffff;opacity:.1" d="m12 4c-3.324 0-6 2.676-6 6v1c0-3.324 2.676-6 6-6h40c3.324 0 6 2.676 6 6v-1c0-3.324-2.676-6-6-6h-40z"/>
 <path style="fill:#ffffff;opacity:.2" d="m23 42c-5.214286 0-8.770339 3.519787-10.539062 6.414062-1.768725 2.894276-2.365235 5.718751-2.365235 5.71875a4.0004 4.0004 0 0 0-0.080078 1.441407 4.0004 4.0004 0 0 1 0.080078-0.441407c0 1e-6 0.59651-2.824474 2.365235-5.71875 1.768723-2.894275 5.324776-6.414062 10.539062-6.414062 4.051273 0 7.035129 2.217199 9 4.644531 1.964871-2.427332 4.948727-4.644531 9-4.644531 5.214286 0 8.770339 3.519787 10.539062 6.414062 1.768726 2.894276 2.365235 5.71875 2.365235 5.71875a4.0004 4.0004 0 0 1 0.080078 0.455079 4.0004 4.0004 0 0 0-0.080078-1.455079s-0.596509-2.824474-2.365235-5.71875c-1.768723-2.894275-5.324776-6.414062-10.539062-6.414062-4.051273 0-7.035129 2.217199-9 4.644531-1.964871-2.427332-4.948727-4.644531-9-4.644531z"/>
</svg>

<?xml version="1.0" encoding="UTF-8" standalone="no"?>
<svg
   id="_图层_1"
   version="1.1"
   viewBox="0 0 64 64" width="64" height="64"
   sodipodi:docname="calf.svg"
   xml:space="preserve"
   inkscape:version="1.4 (e7c3feb100, 2024-10-09)"
   xmlns:inkscape="http://www.inkscape.org/namespaces/inkscape"
   xmlns:sodipodi="http://sodipodi.sourceforge.net/DTD/sodipodi-0.dtd"
   xmlns="http://www.w3.org/2000/svg"
   xmlns:svg="http://www.w3.org/2000/svg"><sodipodi:namedview
     id="namedview26"
     pagecolor="#505050"
     bordercolor="#eeeeee"
     borderopacity="1"
     inkscape:showpageshadow="0"
     inkscape:pageopacity="0"
     inkscape:pagecheckerboard="0"
     inkscape:deskcolor="#505050"
     inkscape:zoom="10.6875"
     inkscape:cx="32"
     inkscape:cy="51.461988"
     inkscape:window-width="1920"
     inkscape:window-height="939"
     inkscape:window-x="0"
     inkscape:window-y="34"
     inkscape:window-maximized="1"
     inkscape:current-layer="g26" /><!-- Generator: Adobe Illustrator 29.0.1, SVG Export Plug-In . SVG Version: 2.1.0 Build 192)  --><defs
     id="defs6"><style
       id="style1">
      .st0 {
        fill-opacity: .5;
      }

      .st0, .st1, .st2, .st3, .st4, .st5, .st6, .st7 {
        fill: #fff;
      }

      .st8 {
        fill: #133c9a;
      }

      .st2, .st9 {
        display: none;
      }

      .st3 {
        fill-opacity: .2;
      }

      .st4 {
        fill-opacity: .9;
      }

      .st10 {
        fill: #3370ff;
      }

      .st11 {
        fill: url(#_未命名的渐变_3);
      }

      .st12 {
        fill: url(#_未命名的渐变);
      }

      .st5 {
        fill-opacity: .3;
      }

      .st6 {
        fill-opacity: 0;
      }

      .st7 {
        fill-opacity: .7;
      }

      .st13 {
        fill: #00d6b9;
      }

      .st14 {
        fill: url(#_未命名的渐变_2);
      }
    </style><radialGradient
       id="_未命名的渐变"
       data-name="未命名的渐变"
       cx="123.9"
       cy="-40.2"
       fx="123.9"
       fy="-40.2"
       r="59.4"
       gradientTransform="translate(-26.8 25.5) scale(.6 -.7)"
       gradientUnits="userSpaceOnUse"><stop
         offset="0"
         stop-color="#db202e"
         id="stop1" /><stop
         offset="1"
         stop-color="#e01b24"
         id="stop2" /></radialGradient><radialGradient
       id="_未命名的渐变_2"
       data-name="未命名的渐变 2"
       cx="67.6"
       cy="26.8"
       fx="67.6"
       fy="26.8"
       r="105.2"
       gradientTransform="translate(-26.6 25.3) scale(.6 -.7)"
       gradientUnits="userSpaceOnUse"><stop
         offset="0"
         stop-color="#ffb648"
         id="stop3" /><stop
         offset="1"
         stop-color="#ff7800"
         stop-opacity="0"
         id="stop4" /></radialGradient><radialGradient
       id="_未命名的渐变_3"
       data-name="未命名的渐变 3"
       cx="61.7"
       cy="18.6"
       fx="61.7"
       fy="18.6"
       r="68"
       gradientTransform="translate(-26.8 25.8) scale(.6 -.7)"
       gradientUnits="userSpaceOnUse"><stop
         offset="0"
         stop-color="#c64600"
         id="stop5" /><stop
         offset="1"
         stop-color="#a51d2d"
         id="stop6" /></radialGradient></defs><path
     class="st1"
     d="M 47.5,64.1 H 13.8 C 6.2,64.1 0,57.8 0,50.3 V 13.7 C 0,6.2 6.2,0 13.7,0 H 50.3 C 57.8,0 64,6.2 64,13.7 V 50.3 C 64,57.8 57.8,64 50.3,64 h -2.9 0.1 z"
     id="path6"
     style="display:inline;fill:#e4e4e4;fill-opacity:1" /><g
     id="g26"
     transform="matrix(1.2321188,0,0,1.1411791,-7.3810167,-4.5135087)"><path
       style="fill:#4f4f4f"
       d="M 17.087988,4 C 11.561724,4 6.1115226,7.4109831 6.0759401,15.575438 L 6,33 C 6,33 16,31 16,19 16,9 29,4 29,4 Z m 21.378809,0 c 0.538132,1.7034873 1.52278,3.2317153 2.851562,4.4257812 C 41.111089,9.2682958 41.004226,10.132374 41,11 c 0,6.075132 4.924868,11 11,11 2.131472,-0.0037 4.215953,-0.626624 6,-1.792969 L 57.92406,15.083487 C 57.829923,8.7322427 53.045066,3.9999999 47.823293,4 Z M 58,27 c 0,0 -11.480798,1.480798 -18,8 -7,7 -11,21 -11,21 h 23 c 3.324,0 6,-2.676 6,-6 z"
       id="path2"
       sodipodi:nodetypes="sscscscccccssccscssc" /><path
       style="fill:#4f4f4f;stroke-width:1.25963"
       d="m 5.874407,48.780341 c 0,0 -0.1998943,11.322545 12.026925,11.285548 7.064273,-0.02138 29.592644,0.02931 29.592644,0.02931 0,0 11.580351,-0.609679 10.402701,-15.177192 -0.767683,-9.49621 -25.820737,6.370412 -25.820737,6.370412 L 5.9513203,44.672033 Z"
       id="path4"
       sodipodi:nodetypes="cscsccc" /><path
       style="fill:none;stroke:#f26f6f;stroke-width:8;stroke-linecap:round;stroke-linejoin:round"
       d="m 14,55 c 0,0 2,-9 9,-9 7,0 9,10 9,10 0,0 2,-10 9,-10 7,0 9,9 9,9"
       id="path6-3" /><path
       style="opacity:0.2"
       d="M 23.712891,15.002316 A 10.160932,12.288428 22.518727 0 0 13.21875,22.863644 10.160932,12.288428 22.518727 0 0 17.589844,38.264035 10.160932,12.288428 22.518727 0 0 31.78125,31.137082 10.160932,12.288428 22.518727 0 0 32,30.59216 12.288428,10.160932 67.481273 0 0 32.21875,31.137082 12.288428,10.160932 67.481273 0 0 46.410156,38.264035 12.288428,10.160932 67.481273 0 0 50.78125,22.863644 12.288428,10.160932 67.481273 0 0 36.589844,15.736691 12.288428,10.160932 67.481273 0 0 32,20.514035 10.160932,12.288428 22.518727 0 0 27.410156,15.736691 10.160932,12.288428 22.518727 0 0 23.712891,15.002316 Z"
       id="path7" /><path
       style="fill:#ffffff"
       d="M 23.712891,14.001953 A 10.160932,12.288428 22.518727 0 0 13.21875,21.863281 10.160932,12.288428 22.518727 0 0 17.589844,37.263672 10.160932,12.288428 22.518727 0 0 31.78125,30.136719 10.160932,12.288428 22.518727 0 0 32,29.591797 12.288428,10.160932 67.481273 0 0 32.21875,30.136719 12.288428,10.160932 67.481273 0 0 46.410156,37.263672 12.288428,10.160932 67.481273 0 0 50.78125,21.863281 12.288428,10.160932 67.481273 0 0 36.589844,14.736328 12.288428,10.160932 67.481273 0 0 32,19.513672 10.160932,12.288428 22.518727 0 0 27.410156,14.736328 10.160932,12.288428 22.518727 0 0 23.712891,14.001953 Z"
       id="path8" /><circle
       style="fill:#4f4f4f"
       cx="28.5"
       cy="25.5"
       r="3.5"
       id="circle8" /><circle
       style="fill:#4f4f4f"
       cx="37"
       cy="25"
       r="5"
       id="circle9" /><path
       style="opacity:0.2;fill:#ffffff"
       d="m 23,42 c -5.214286,0 -8.770339,3.519787 -10.539062,6.414062 -1.768725,2.894276 -2.365235,5.718751 -2.365235,5.71875 a 4.0004,4.0004 0 0 0 -0.08008,1.441407 4.0004,4.0004 0 0 1 0.08008,-0.441407 c 0,10e-7 0.59651,-2.824474 2.365235,-5.71875 C 14.229661,46.519787 17.785714,43 23,43 c 4.051273,0 7.035129,2.217199 9,4.644531 C 33.964871,45.217199 36.948727,43 41,43 c 5.214286,0 8.770339,3.519787 10.539062,6.414062 1.768726,2.894276 2.365235,5.71875 2.365235,5.71875 a 4.0004,4.0004 0 0 1 0.08008,0.455079 4.0004,4.0004 0 0 0 -0.08008,-1.455079 c 0,0 -0.596509,-2.824474 -2.365235,-5.71875 C 49.770339,45.519787 46.214286,42 41,42 36.948727,42 33.964871,44.217199 32,46.644531 30.035129,44.217199 27.051273,42 23,42 Z"
       id="path10" /></g></svg>
